app/assets/images/ico_weltkugel.svg

<svg xmlns="http://www.w3.org/2000/svg" width="25" height="25" viewBox="0 0 25 25"><style>.st0{fill:#FFFFFF;} .st1{fill:#86A6AF;}</style><circle class="st0" cx="12.5" cy="12.5" r="12.5"/><path class="st1" d="M21.9 18.7c0 .2.3.3.5.4.1-.2.2-.4.3-.5-.1-.1-.9-.5-.8.1zM21.1 16.2c-.5-.4-.8.4-.4.8.3.3.7.9 1.1.9 1.3.3-.4-1.4-.7-1.7zM21.3 20.6c-.2 0-.3 0-.4.2-.1.1-.2.3-.2.5.1-.3.3-.5.6-.7zM23.1 15.8c-1.1.2-.6.9 0 1.3l.2.1h.2c.2-.4.3-.8.4-1.1-.1-.5-.3-.4-.8-.3zM13 19.9c0-.1 0-.2-.1-.2-.1-.1-.3 0-.5.1-.1.1-.2.1-.3.2-.4.4-.4 1.2-.6 1.7-.1.4.5.4.6.2.2-.2.3-.5.4-.8.1-.2.2-.5.3-.7.2-.1.2-.3.2-.5zM17 16.2c.1 0 .1-.1.1-.2-.1 0-.1 0-.1.2zM17.3 15.6c0-.1-.1-.1-.1-.2-.1.1-.1.2-.1.3.1 0 .2-.1.2-.1zM19 15.2c0-.2-.1-.4-.3-.4-.1 0-.3.5-.4.7-.1.5.7.2.7-.3zM9.5 10.8c-.4-.3-.3.2 0 0zM6.1 4c.1.4.8.7.8.1V4v.1c.2-.8-.9-.7-.8-.1zM11.1 5.6c-.1.3.2.5.4.2 0-.3-.2-.6-.4-.2zM7.8 6.9c.2 0 .7-.2.7-.4.1-.3-.2-.3-.3-.5-.1-.2.1-1.1-.4-1-.3 0-.2.7-.2 1v.1c0 .3-.4.7.2.8zM4.9 3.3c-.6.5-1.2 1.1-1.6 1.7 0 .2.1.4.2.5.5.4 1-.7 1-1 .1-.5.2-.8.4-1.2zM1.3 15.7c-.2-.3-.3-.5-.5-.8.1.6.3 1.2.5 1.8.2-.3.2-.6 0-1z"/><path class="st1" d="M7.3 5.6c-.4-.1-.4.4-.1.5.1 0 .1 0 0 0 .4 0 .5-.4.1-.5zM16.7 3.7c-.9-.1-1.6-.4-2.5 0-1 .4-.9-.8-1.6-1-1-.2-1.7.6-2.4 1.3-.2.3-.7.8-.7 1.2 0 .6.3.6.7.3 0 0 .4.4.6.3.3-.2.4-.7.7-1 .1-.2.5-.8.8-.7.3.1.1 1.2 0 1.5-.1.4.4.4.6.6.2.2-.4.3-.5.2-.3-.1-.6.3-.9.5-.2.1-1-.1-1-.4 0-.4-.1-.5-.4-.5-.2 0-.3.6-.5.7-.2.2-.4.3-.6.3-.2.1-.5 0-.6.1-.4.4.3.5.4.6.1.1-.3 1-.4 1.1-.2.3-.5.2-.7 0-.3-.2-.9.7-.9 1-.1.3.2.5.4.7.2.2.9.1 1.1-.1.2-.3.4-.8.6-1 1-1.3.7 1.5.8 1.5.3 0 .7-.2.7-.6 0 0-.1-1 0-.8.2.2.3.5.6.3.2-.2.4-.3.7-.2.4 0 .5.7.2.7-.2-.1-.6-.3-.7-.2-.3 0-.4.6-.2.8.2.2 1.2.1.6.8-.3.4-.7 0-1.1.1-.4 0-1.1.2-1.3-.3-.2-.5-.5-.4-1-.3-.2.1-.4.1-.5 0-.1-.1-.2-.2-.4-.2s-.3.2-.5.3c-.4.3-.6.7-.8 1.2-.4 1-1.2 1.6-1.1 2.8.1 1.2 1.8 1.3 2.6 1.4 1 .2.8 1.4.9 2.2.1 1-.1 2-.1 3 0 .3.5.8.7.7.2-.1.2-.3.4-.4l.6-.3c1-.5 1.5-1.7 1.7-2.9.3-.2.4-1.2.6-1.6.3-.4.7-.8 1.1-1.2.1-.1 1.1-1.1.9-1.2-.2-.2-.6 0-.9-.1-.4-.1-1.8-2.6-1.6-2.7.4-.2.1 1.1.6.2.7.5.5 1.9 1.3 2.3.4.2 1 0 1.4 0 .4 0 .5-.3.8-.6.3-.3-.4-1.6-.8-1.5-.4.1-.4.1-.3-.5 0-.4-.1-.7-.2-1.1.3 0 .6.6.9.8.3.3.7.4 1 .7.4.3.6.9.7 1.4.1.2.2 1.3.5 1.4.2 0 .8-.6.8-.8.1-.5.1-.9.4-1.3.3-.5.6-.9.8-1.4.1-.2.6-.8.7-.4 0 .1.2.9.2.9-.3.5-.5 1.1-.2 1.6.1.2.7 2.9 1.1 1.7.2-.6-.6-1.9.4-1.2 1 .6 1.1-.1.9-1.1.4 0 1 .1 1.5 0v-.8c0-3.1-1.2-5.9-3.1-8-.3.1-.5.2-.5.3 0-.1.1-.3.4-.4-.3-.4-.7-.8-1.1-1.1-.2 0-.4.1-.6.1-.9-.1-1.8.4-2.7.3zm-2.2 6c-.1.2-.2.8-.5.6-.5-.2-.1-.7-.3-1.1-.2-.4.6-.8.7-.5.1.1.1.7.1 1z"/></svg>

<svg xmlns="http://www.w3.org/2000/svg" width="25" height="25" viewBox="0 0 25 25">
  <g fill="none" fill-rule="evenodd">
    <circle cx="12.5" cy="12.5" r="12.5" fill="#000000" opacity=".66"/>
    <path fill="#FFFFFF" d="M21.9,18.7 C21.9,18.9 22.2,19 22.4,19.1 C22.5,18.9 22.6,18.7 22.7,18.6 C22.6,18.5 21.8,18.1 21.9,18.7 L21.9,18.7 Z M21.1,16.2 C20.6,15.8 20.3,16.6 20.7,17 C21,17.3 21.4,17.9 21.8,17.9 C23.1,18.2 21.4,16.5 21.1,16.2 L21.1,16.2 Z M21.3,20.6 C21.1,20.6 21,20.6 20.9,20.8 C20.8,20.9 20.7,21.1 20.7,21.3 C20.8,21 21,20.8 21.3,20.6 L21.3,20.6 Z M23.1,15.8 C22,16 22.5,16.7 23.1,17.1 L23.3,17.2 L23.5,17.2 C23.7,16.8 23.8,16.4 23.9,16.1 C23.8,15.6 23.6,15.7 23.1,15.8 L23.1,15.8 Z M13,19.9 C13,19.8 13,19.7 12.9,19.7 C12.8,19.6 12.6,19.7 12.4,19.8 C12.3,19.9 12.2,19.9 12.1,20 C11.7,20.4 11.7,21.2 11.5,21.7 C11.4,22.1 12,22.1 12.1,21.9 C12.3,21.7 12.4,21.4 12.5,21.1 C12.6,20.9 12.7,20.6 12.8,20.4 C13,20.3 13,20.1 13,19.9 L13,19.9 Z M17,16.2 C17.1,16.2 17.1,16.1 17.1,16 C17,16 17,16 17,16.2 L17,16.2 Z M17.3,15.6 C17.3,15.5 17.2,15.5 17.2,15.4 C17.1,15.5 17.1,15.6 17.1,15.7 C17.2,15.7 17.3,15.6 17.3,15.6 L17.3,15.6 Z M19,15.2 C19,15 18.9,14.8 18.7,14.8 C18.6,14.8 18.4,15.3 18.3,15.5 C18.2,16 19,15.7 19,15.2 L19,15.2 Z M9.5,10.8 C9.1,10.5 9.2,11 9.5,10.8 L9.5,10.8 Z M6.1,4 C6.2,4.4 6.9,4.7 6.9,4.1 L6.9,4 L6.9,4.1 C7.1,3.3 6,3.4 6.1,4 L6.1,4 Z M11.1,5.6 C11,5.9 11.3,6.1 11.5,5.8 C11.5,5.5 11.3,5.2 11.1,5.6 L11.1,5.6 Z M7.8,6.9 C8,6.9 8.5,6.7 8.5,6.5 C8.6,6.2 8.3,6.2 8.2,6 C8.1,5.8 8.3,4.9 7.8,5 C7.5,5 7.6,5.7 7.6,6 L7.6,6.1 C7.6,6.4 7.2,6.8 7.8,6.9 L7.8,6.9 Z M4.9,3.3 C4.3,3.8 3.7,4.4 3.3,5 C3.3,5.2 3.4,5.4 3.5,5.5 C4,5.9 4.5,4.8 4.5,4.5 C4.6,4 4.7,3.7 4.9,3.3 L4.9,3.3 Z M1.3,15.7 C1.1,15.4 1,15.2 0.8,14.9 C0.9,15.5 1.1,16.1 1.3,16.7 C1.5,16.4 1.5,16.1 1.3,15.7 L1.3,15.7 Z"/>
    <path fill="#FFFFFF" d="M7.3,5.6 C6.9,5.5 6.9,6 7.2,6.1 L7.2,6.1 C7.6,6.1 7.7,5.7 7.3,5.6 L7.3,5.6 Z M16.7,3.7 C15.8,3.6 15.1,3.3 14.2,3.7 C13.2,4.1 13.3,2.9 12.6,2.7 C11.6,2.5 10.9,3.3 10.2,4 C10,4.3 9.5,4.8 9.5,5.2 C9.5,5.8 9.8,5.8 10.2,5.5 C10.2,5.5 10.6,5.9 10.8,5.8 C11.1,5.6 11.2,5.1 11.5,4.8 C11.6,4.6 12,4 12.3,4.1 C12.6,4.2 12.4,5.3 12.3,5.6 C12.2,6 12.7,6 12.9,6.2 C13.1,6.4 12.5,6.5 12.4,6.4 C12.1,6.3 11.8,6.7 11.5,6.9 C11.3,7 10.5,6.8 10.5,6.5 C10.5,6.1 10.4,6 10.1,6 C9.9,6 9.8,6.6 9.6,6.7 C9.4,6.9 9.2,7 9,7 C8.8,7.1 8.5,7 8.4,7.1 C8,7.5 8.7,7.6 8.8,7.7 C8.9,7.8 8.5,8.7 8.4,8.8 C8.2,9.1 7.9,9 7.7,8.8 C7.4,8.6 6.8,9.5 6.8,9.8 C6.7,10.1 7,10.3 7.2,10.5 C7.4,10.7 8.1,10.6 8.3,10.4 C8.5,10.1 8.7,9.6 8.9,9.4 C9.9,8.1 9.6,10.9 9.7,10.9 C10,10.9 10.4,10.7 10.4,10.3 C10.4,10.3 10.3,9.3 10.4,9.5 C10.6,9.7 10.7,10 11,9.8 C11.2,9.6 11.4,9.5 11.7,9.6 C12.1,9.6 12.2,10.3 11.9,10.3 C11.7,10.2 11.3,10 11.2,10.1 C10.9,10.1 10.8,10.7 11,10.9 C11.2,11.1 12.2,11 11.6,11.7 C11.3,12.1 10.9,11.7 10.5,11.8 C10.1,11.8 9.4,12 9.2,11.5 C9,11 8.7,11.1 8.2,11.2 C8,11.3 7.8,11.3 7.7,11.2 C7.6,11.1 7.5,11 7.3,11 C7.1,11 7,11.2 6.8,11.3 C6.4,11.6 6.2,12 6,12.5 C5.6,13.5 4.8,14.1 4.9,15.3 C5,16.5 6.7,16.6 7.5,16.7 C8.5,16.9 8.3,18.1 8.4,18.9 C8.5,19.9 8.3,20.9 8.3,21.9 C8.3,22.2 8.8,22.7 9,22.6 C9.2,22.5 9.2,22.3 9.4,22.2 L10,21.9 C11,21.4 11.5,20.2 11.7,19 C12,18.8 12.1,17.8 12.3,17.4 C12.6,17 13,16.6 13.4,16.2 C13.5,16.1 14.5,15.1 14.3,15 C14.1,14.8 13.7,15 13.4,14.9 C13,14.8 11.6,12.3 11.8,12.2 C12.2,12 11.9,13.3 12.4,12.4 C13.1,12.9 12.9,14.3 13.7,14.7 C14.1,14.9 14.7,14.7 15.1,14.7 C15.5,14.7 15.6,14.4 15.9,14.1 C16.2,13.8 15.5,12.5 15.1,12.6 C14.7,12.7 14.7,12.7 14.8,12.1 C14.8,11.7 14.7,11.4 14.6,11 C14.9,11 15.2,11.6 15.5,11.8 C15.8,12.1 16.2,12.2 16.5,12.5 C16.9,12.8 17.1,13.4 17.2,13.9 C17.3,14.1 17.4,15.2 17.7,15.3 C17.9,15.3 18.5,14.7 18.5,14.5 C18.6,14 18.6,13.6 18.9,13.2 C19.2,12.7 19.5,12.3 19.7,11.8 C19.8,11.6 20.3,11 20.4,11.4 C20.4,11.5 20.6,12.3 20.6,12.3 C20.3,12.8 20.1,13.4 20.4,13.9 C20.5,14.1 21.1,16.8 21.5,15.6 C21.7,15 20.9,13.7 21.9,14.4 C22.9,15 23,14.3 22.8,13.3 C23.2,13.3 23.8,13.4 24.3,13.3 L24.3,12.5 C24.3,9.4 23.1,6.6 21.2,4.5 C20.9,4.6 20.7,4.7 20.7,4.8 C20.7,4.7 20.8,4.5 21.1,4.4 C20.8,4 20.4,3.6 20,3.3 C19.8,3.3 19.6,3.4 19.4,3.4 C18.5,3.3 17.6,3.8 16.7,3.7 L16.7,3.7 Z M14.5,9.7 C14.4,9.9 14.3,10.5 14,10.3 C13.5,10.1 13.9,9.6 13.7,9.2 C13.5,8.8 14.3,8.4 14.4,8.7 C14.5,8.8 14.5,9.4 14.5,9.7 L14.5,9.7 Z"/>
  </g>
</svg>
